public/img/penguin.svg

<svg enable-background="new 0 0 100 100" viewBox="0 0 100 100" xmlns="http://www.w3.org/2000/svg"><path clip-rule="evenodd" d="m50.1 6.5c25.4 0 53.6 33 46.4 58.1-5.3 18.8-24 28.9-46.4 28.9-23.1 0-42.5-10.9-47.1-31-5.5-25.2 21.8-56 47.1-56zm29.4 48.7c4.2 0 4.2 7.8 0 7.8s-4.1-7.8 0-7.8zm-59.1 0c4.2 0 4.2 7.8 0 7.8s-4.1-7.8 0-7.8zm15.2 12.2c9.3 3.3 18.8 3.4 28 0 1-.3 1.7 1.4.7 1.8-9.8 3.6-19.4 3.5-29.3 0-1.2-.3-.6-2.2.6-1.8zm14.4-11.5c9.5 0 17.3 4.7 17.3 10.7 0 5.9-7.8 10.7-17.3 10.7s-17.3-4.7-17.3-10.7c0-5.9 7.7-10.7 17.3-10.7zm.1 33.5c17.9 0 37.2-7.2 42.4-25.8 2.6-9-.2-19.4-5.9-28.6-6.4-3.8-12.4-.6-14.5 4.2-3.1 7.4-5.9 13-9.3 17.1 14.5 8 6.2 23.9-12.7 23.9s-27.2-15.9-12.8-23.9c-3.6-3.9-6.4-9.7-9.5-17.1-2.1-4.9-8.4-8.2-15.1-3.8-4.9 8.3-7.4 17.6-5.5 26.3 4.5 19.9 24.2 27.7 42.9 27.7z" fill-rule="evenodd"/></svg>

<?xml version="1.0" encoding="utf-8"?>
<!-- Generator: Adobe Illustrator 23.0.6, SVG Export Plug-In . SVG Version: 6.00 Build 0)  -->
<svg version="1.1" id="Layer_1" xmlns="http://www.w3.org/2000/svg" xmlns:xlink="http://www.w3.org/1999/xlink" x="0px" y="0px"
	 viewBox="0 0 100 100" style="enable-background:new 0 0 100 100;" xml:space="preserve">
<style type="text/css">
	.st0{fill-rule:evenodd;clip-rule:evenodd;}
</style>
<g>
	<path class="st0" d="M50.1,6.5c25.4,0,53.6,33,46.4,58.1c-5.3,18.8-24,28.9-46.4,28.9C27,93.5,7.6,82.6,3,62.5
		C-2.5,37.3,24.8,6.5,50.1,6.5z M79.5,55.2c4.2,0,4.2,7.8,0,7.8S75.4,55.2,79.5,55.2z M20.4,55.2c4.2,0,4.2,7.8,0,7.8
		S16.3,55.2,20.4,55.2z M35.6,67.4c9.3,3.3,18.8,3.4,28,0c1-0.3,1.7,1.4,0.7,1.8c-9.8,3.6-19.4,3.5-29.3,0
		C33.8,68.9,34.4,67,35.6,67.4L35.6,67.4z M50,55.9c9.5,0,17.3,4.7,17.3,10.7c0,5.9-7.8,10.7-17.3,10.7s-17.3-4.7-17.3-10.7
		C32.7,60.7,40.4,55.9,50,55.9z M50.1,89.4c17.9,0,37.2-7.2,42.4-25.8c2.6-9-0.2-19.4-5.9-28.6c-6.4-3.8-12.4-0.6-14.5,4.2
		c-3.1,7.4-5.9,13-9.3,17.1c14.5,8,6.2,23.9-12.7,23.9S22.9,64.3,37.3,56.3c-3.6-3.9-6.4-9.7-9.5-17.1c-2.1-4.9-8.4-8.2-15.1-3.8
		C7.8,43.7,5.3,53,7.2,61.7C11.7,81.6,31.4,89.4,50.1,89.4L50.1,89.4z"/>
</g>
</svg>
